symbols/web/swap_horizontal_circle/materialsymbolsoutlined/swap_horizontal_circle_gradN25fill1_48px.svg

<svg xmlns="http://www.w3.org/2000/svg" height="48" width="48"><path d="m18.5 36.25 2.1-2.1-4.25-4.2H26v-2.9h-9.65l4.25-4.2-2.1-2.05-7.7 7.7Zm11-8.65 7.75-7.75-7.7-7.7-2.1 2.05 4.25 4.25h-9.65v2.85h9.65l-4.25 4.25ZM24 43.75q-4.05 0-7.65-1.575-3.6-1.575-6.275-4.25Q7.4 35.25 5.825 31.65 4.25 28.05 4.25 24q0-4.1 1.575-7.7 1.575-3.6 4.25-6.275Q12.75 7.35 16.35 5.8q3.6-1.55 7.65-1.55 4.1 0 7.7 1.55 3.6 1.55 6.275 4.225Q40.65 12.7 42.2 16.3q1.55 3.6 1.55 7.7 0 4.05-1.55 7.65-1.55 3.6-4.225 6.275Q35.3 40.6 31.7 42.175 28.1 43.75 24 43.75Z"/></svg>

<svg xmlns="http://www.w3.org/2000/svg" height="48" width="48"><path d="M24 43.75Q19.95 43.75 16.35 42.175Q12.75 40.6 10.075 37.925Q7.4 35.25 5.825 31.65Q4.25 28.05 4.25 24Q4.25 19.95 5.825 16.35Q7.4 12.75 10.075 10.05Q12.75 7.35 16.35 5.8Q19.95 4.25 24 4.25Q28.05 4.25 31.65 5.825Q35.25 7.4 37.95 10.075Q40.65 12.75 42.2 16.35Q43.75 19.95 43.75 24Q43.75 28.05 42.175 31.65Q40.6 35.25 37.925 37.925Q35.25 40.6 31.65 42.175Q28.05 43.75 24 43.75ZM29.5 27.6 37.25 19.85 29.55 12.15 27.45 14.2 31.7 18.45H22.05V21.3H31.7L27.45 25.55ZM18.5 36.25 20.6 34.15 16.35 29.95H26V27.05H16.35L20.6 22.85L18.5 20.8L10.8 28.5Z"/></svg>
